(begin preamble)
G17 G54 G40 G49 G80 G90
G21
(begin operation: G54)
(machine units: mm/min)
G54 
G0 Z9.000 
(finish operation: G54)
(begin operation: 5mm Endmill001)
(machine units: mm/min)
(5mm Endmill001) 
M5
M6 T1 
G43 H1 
M3 S123 
(finish operation: 5mm Endmill001)
(begin operation: Profile)
(machine units: mm/min)
(Profile) 
(Compensated Tool Path. Diameter: 5.0) 
G0 Z9.000 
G0 X0.000 Y0.000 
G0 Y-2.500 
G0 Y-2.500 Z7.000 
G1 X0.000 Y-2.500 Z-1.000 F340.200 
G2 X-2.500 Y0.000 Z-1.000 I0.000 J2.500 F140.400 
G1 X-2.500 Y3.000 Z-1.000 F140.400 
G2 X0.000 Y5.500 Z-1.000 I2.500 J0.000 F140.400 
G1 X3.000 Y5.500 Z-1.000 F140.400 
G2 X5.500 Y3.000 Z-1.000 I0.000 J-2.500 F140.400 
G1 X5.500 Y0.000 Z-1.000 F140.400 
G2 X3.000 Y-2.500 Z-1.000 I-2.500 J0.000 F140.400 
G1 X0.000 Y-2.500 Z-1.000 F140.400 
G0 Z9.000 
G0 Z9.000 
(finish operation: Profile)
(begin postamble)
M05
G17 G54 G90 G80 G40
M2
